themes/wilks/static/images/src/argyll.svg

<svg width="236" height="40" viewBox="0 0 236 40" xmlns="http://www.w3.org/2000/svg"><title>logo</title><g fill="none" fill-rule="evenodd"><path d="M53.732 20.062c-3.53 0-7.14.38-7.14 3.212 0 1.236.967 2.56 3.097 2.56 2.665 0 4.452-2.868 4.452-5.553v-.22h-.409zm-4.402 8.722c-3.012 0-6.06-1.844-6.06-5.38 0-4.088 3.53-6.161 10.494-6.161h.377c-.071-2.8-1.031-3.755-3.68-3.755-1.1 0-2.639.343-2.639.9v1.043a.532.532 0 0 1-.528.533H45.19a.53.53 0 0 1-.527-.533v-1.563c0-2.61 3.816-3.298 5.833-3.298 6.186 0 6.904 3.89 6.904 6.813v7.843c0 .101.019.15.025.164.01 0 .057.02.158.02h1.36c.29 0 .529.244.529.532v1.92a.532.532 0 0 1-.529.533h-2.234c-1.457 0-2.258-.628-2.432-1.91a6.324 6.324 0 0 1-.352.396c-.84.87-2.318 1.903-4.594 1.903zm12.24-.389a.532.532 0 0 1-.531-.533V14.126c0-.16-.022-.184-.182-.184h-1.36a.53.53 0 0 1-.53-.532v-1.917a.53.53 0 0 1 .53-.532h2.264c1.66 0 2.505.803 2.505 2.386v.007c1.104-1.632 2.729-2.558 4.614-2.558.507 0 .976.108.995.112.239.058.41.273.41.52v2.181a.532.532 0 0 1-.53.53c-.032 0-.059-.004-.086-.007 0 0-.356-.059-.725-.059-1.898 0-3.516 1.478-4.216 3.853-.284.913-.432 1.96-.432 3.038v6.898a.53.53 0 0 1-.526.533h-2.2m16.438-14.747c-2.851 0-4.488 2.077-4.488 5.688 0 3.59 1.877 5.916 4.778 5.916 2.829 0 4.326-2.034 4.326-5.884 0-3.846-1.508-5.72-4.616-5.72zm-.518 21.583c-1.871 0-3.839-.484-5.547-1.361a.533.533 0 0 1-.24-.694l.842-1.854a.531.531 0 0 1 .317-.284.496.496 0 0 1 .422.043c.016.01 1.925 1.069 4.141 1.069 1.93 0 5.168-.599 5.168-4.612v-1.014c-1.124 1.178-2.669 1.77-4.617 1.77-4.58 0-7.778-3.67-7.778-8.926 0-5.344 2.977-8.798 7.584-8.798 2.689 0 4.216.995 5.042 1.868.265-.97 1.037-1.477 2.268-1.477h2.267a.53.53 0 0 1 .53.532v1.917a.53.53 0 0 1-.53.532h-1.327c-.1 0-.15.017-.158.027a.357.357 0 0 0-.024.157v13.347c0 5.717-4.318 7.758-8.36 7.758zm15.026 0c-2.49 0-3.885-1.72-3.94-1.796a.535.535 0 0 1-.032-.618l1.035-1.629a.527.527 0 0 1 .593-.222.517.517 0 0 1 .293.222c.093.098.92.994 1.986.994 1.289 0 2.083-1.275 2.522-2.341l.884-2.044-5.639-13.43c-.17-.385-.274-.425-.646-.425h-.325a.528.528 0 0 1-.526-.532v-1.917a.53.53 0 0 1 .526-.532h1.003c1.677 0 2.32.457 2.982 2.122l4.174 10.213.11.292c.034-.095.07-.19.106-.282l4.012-10.22c.62-1.645 1.298-2.125 3.017-2.125h1.001a.53.53 0 0 1 .529.532v1.917a.529.529 0 0 1-.529.532h-.322c-.406 0-.507.07-.64.413l-7.027 17.128c-.96 2.38-2.837 3.748-5.147 3.748" fill="#286AA6"/><path d="M109.972 28.395c-1.685 0-2.502-.824-2.502-2.518V7.617c0-.16-.023-.183-.185-.183h-1.358a.531.531 0 0 1-.529-.53V4.984a.53.53 0 0 1 .529-.533h2.297c1.683 0 2.503.824 2.503 2.518v18.258c0 .101.019.15.024.164.01 0 .056.02.162.02h1.354c.294 0 .53.244.53.532v1.92a.53.53 0 0 1-.53.533h-2.295m6.936 0c-1.683 0-2.502-.824-2.502-2.518V7.617c0-.16-.023-.183-.183-.183h-1.361a.529.529 0 0 1-.526-.53V4.984c0-.296.235-.533.526-.533h2.302c1.68 0 2.498.824 2.498 2.518v18.258c0 .101.021.15.027.164.008 0 .055.02.158.02h1.358c.292 0 .528.244.528.532v1.92a.53.53 0 0 1-.528.533h-2.297" fill="#286AA6"/><path d="M135.722 28.395c-1.684 0-2.503-.824-2.503-2.518v-7.843c0-2.8-.483-4.32-3.031-4.32-2.485 0-4.699 1.756-5.382 4.265-.162.545-.237 1.21-.237 2.043v7.84a.533.533 0 0 1-.53.533h-2.2a.53.53 0 0 1-.526-.533V7.618c0-.16-.025-.184-.186-.184h-1.359a.53.53 0 0 1-.529-.53V4.984a.53.53 0 0 1 .53-.533h2.296c1.685 0 2.504.805 2.504 2.455v6.403c1.12-1.357 3.062-2.738 5.911-2.738 4.09 0 5.995 2.186 5.995 6.879v7.777c0 .101.02.15.026.164.006 0 .056.02.158.02h1.36c.289 0 .526.244.526.532v1.92a.531.531 0 0 1-.526.533h-2.297m12.065-14.747c-3.26 0-5.813 2.613-5.813 5.95 0 3.44 2.554 6.138 5.813 6.138 3.243 0 5.782-2.698 5.782-6.139 0-3.336-2.54-5.949-5.782-5.949zm0 15.136c-5.122 0-9.133-4.036-9.133-9.187 0-5.06 3.997-9.027 9.101-9.027 5.123 0 9.137 3.968 9.137 9.027 0 5.151-4 9.187-9.105 9.187zm13.692-.389c-1.685 0-2.505-.824-2.505-2.518V7.617c0-.16-.02-.183-.183-.183h-1.36a.528.528 0 0 1-.524-.53V4.984c0-.296.234-.533.525-.533h2.3c1.683 0 2.499.824 2.499 2.518v18.258c0 .101.023.15.026.164.008 0 .057.02.16.02h1.357c.294 0 .53.244.53.532v1.92a.53.53 0 0 1-.53.533h-2.295m5.1-20.081a.532.532 0 0 1-.528-.533V4.983a.53.53 0 0 1 .529-.533h2.136c.293 0 .527.237.527.533V7.78a.53.53 0 0 1-.527.533h-2.136zm2.04 20.081c-1.685 0-2.5-.824-2.5-2.518V14.126c0-.16-.025-.184-.188-.184h-1.36a.526.526 0 0 1-.524-.532v-1.917c0-.294.234-.532.523-.532h2.302c1.683 0 2.5.823 2.5 2.514v11.75c0 .102.022.151.027.165.008 0 .055.02.158.02h1.357c.294 0 .53.244.53.532v1.92a.53.53 0 0 1-.53.533h-2.296zm11.248-14.78c-2.777 0-4.716 2.486-4.716 6.048 0 3.689 1.811 6.073 4.618 6.073 2.293 0 4.746-1.592 4.746-6.073 0-3.006-1.44-6.047-4.648-6.047zm-.423 15.17c-4.554 0-7.613-3.667-7.613-9.122 0-5.354 3.224-9.093 7.84-9.093 2.386 0 3.898 1.024 4.779 1.944V7.618c0-.16-.021-.184-.184-.184h-1.357a.529.529 0 0 1-.529-.53V4.984c0-.296.235-.533.529-.533h2.295c1.685 0 2.5.824 2.5 2.518v18.258c0 .101.022.15.03.164 0 0 .054.02.156.02h1.357c.293 0 .534.244.534.532v1.92c0 .294-.241.533-.534.533h-2.264c-1.658 0-2.253-.847-2.417-1.74-.893.991-2.493 2.13-5.122 2.13zm21.243-8.723c-3.531 0-7.141.38-7.141 3.212 0 1.236.969 2.56 3.096 2.56 2.664 0 4.454-2.868 4.454-5.553v-.22h-.41zm-4.403 8.722c-3.01 0-6.058-1.844-6.058-5.38 0-4.088 3.528-6.161 10.493-6.161h.373c-.07-2.8-1.028-3.755-3.673-3.755-1.104 0-2.644.343-2.644.9v1.043a.53.53 0 0 1-.53.533h-2.1a.53.53 0 0 1-.527-.533v-1.563c0-2.61 3.816-3.298 5.831-3.298 6.19 0 6.905 3.89 6.905 6.813v7.843c0 .101.018.15.026.164.006 0 .057.02.158.02h1.355c.293 0 .532.244.532.532v1.92a.533.533 0 0 1-.532.533h-2.23c-1.457 0-2.258-.628-2.434-1.91a6.08 6.08 0 0 1-.351.396c-.84.87-2.317 1.903-4.594 1.903z" fill="#0D5D35"/><path d="M209.083 35.23c-2.487 0-3.88-1.72-3.939-1.795a.536.536 0 0 1-.03-.618l1.035-1.629a.525.525 0 0 1 .886 0c.09.098.922.994 1.985.994 1.29 0 2.086-1.275 2.521-2.341l.885-2.044-5.642-13.43c-.165-.385-.272-.425-.643-.425h-.326a.53.53 0 0 1-.528-.532v-1.917a.53.53 0 0 1 .528-.532h1.005c1.678 0 2.32.457 2.98 2.122l4.175 10.213c.034.098.075.197.11.292.035-.095.072-.19.108-.282l4.012-10.22c.62-1.645 1.293-2.125 3.014-2.125h1.003a.53.53 0 0 1 .527.532v1.917a.529.529 0 0 1-.527.532h-.323c-.406 0-.507.07-.639.413l-7.03 17.128c-.957 2.38-2.835 3.748-5.147 3.748m20.434-6.447c-4.463 0-6.59-2.963-6.677-3.087a.535.535 0 0 1 .028-.648l1.258-1.527a.523.523 0 0 1 .407-.193h.016a.532.532 0 0 1 .41.216c.016.02 1.707 2.256 4.594 2.256 1.44 0 2.898-.64 2.898-2.07 0-1.259-1.656-1.93-3.57-2.704-2.477-1.005-5.554-2.25-5.554-5.501 0-3.059 2.422-4.956 6.322-4.956 2.201 0 5.479.93 5.479 3.494v1.4a.53.53 0 0 1-.532.53h-2.07a.528.528 0 0 1-.526-.53v-.782c0-.723-1.355-1.128-2.29-1.128-1.41 0-3.095.32-3.095 1.844 0 1.298 1.652 1.953 3.565 2.715 2.477.984 5.56 2.207 5.56 5.553 0 2.963-2.615 5.118-6.223 5.118" fill="#0D5D35"/><path d="M15.178 26.7c7.75-3.054-8.746-1.978-15.178-1.474 2.339 8.307 9.928 14.4 18.934 14.4 5.862 0 11.124-2.577 14.727-6.668-2.525-1.97-12.41-3.078-12.41-3.078-9.655-.984-6.073-3.18-6.073-3.18" fill="#286AA6"/><path d="M18.934.053c-7.121 0-13.367 3.76-16.889 9.415a12.97 12.97 0 0 0 1.893-.45c1.813-.591 2.387-.482 2.775-.442.385.039.95.261 1.928-.413.977-.673 1.77-.815 2.208-.608.433.21 1.633.604 1.935.802.309.193 1.153 1.548 2.3 1.77 1.15.225 1.68.17 1.828.624.151.454 1.25 1.903 1.25 1.903 2.28-.71 2.952-.272 3.747-.467.802-.194 1.162-.547 1.944.081.785.631 7.777 3.643 9.208 3.673 1.43.036 1.7-.765 2.664-.612.962.151.698.177 1.435.635.735.461.531-.111 1.116.553a.835.835 0 0 0 .294.215C36.985 7.264 28.797.052 18.934.052" fill="#0D5D35"/></g></svg>

<?xml version="1.0" encoding="UTF-8"?>
<svg width="39px" height="40px" viewBox="0 0 39 40" version="1.1" xmlns="http://www.w3.org/2000/svg" xmlns:xlink="http://www.w3.org/1999/xlink">
    <!-- Generator: Sketch 63.1 (92452) - https://sketch.com -->
    <title>argyll</title>
    <desc>Created with Sketch.</desc>
    <g id="Page-1" stroke="none" stroke-width="1" fill="none" fill-rule="evenodd">
        <g id="argyll" fill-rule="nonzero">
            <path d="M15.178,26.7 C22.928,23.646 6.432,24.722 0,25.226 C2.339,33.533 9.928,39.626 18.934,39.626 C24.796,39.626 30.058,37.049 33.661,32.958 C31.136,30.988 21.251,29.88 21.251,29.88 C11.596,28.896 15.178,26.7 15.178,26.7" id="Path" fill="#286AA6"></path>
            <path d="M18.934,0.053 C11.813,0.053 5.567,3.813 2.045,9.468 C2.68637725,9.36560947 3.3191574,9.2151863 3.938,9.018 C5.751,8.427 6.325,8.536 6.713,8.576 C7.098,8.615 7.663,8.837 8.641,8.163 C9.618,7.49 10.411,7.348 10.849,7.555 C11.282,7.765 12.482,8.159 12.784,8.357 C13.093,8.55 13.937,9.905 15.084,10.127 C16.234,10.352 16.764,10.297 16.912,10.751 C17.063,11.205 18.162,12.654 18.162,12.654 C20.442,11.944 21.114,12.382 21.909,12.187 C22.711,11.993 23.071,11.64 23.853,12.268 C24.638,12.899 31.63,15.911 33.061,15.941 C34.491,15.977 34.761,15.176 35.725,15.329 C36.687,15.48 36.423,15.506 37.16,15.964 C37.895,16.425 37.691,15.853 38.276,16.517 C38.3569851,16.6094277 38.4573731,16.6828407 38.57,16.732 C36.985,7.264 28.797,0.052 18.934,0.052" id="Path" fill="#0D5D35"></path>
        </g>
    </g>
</svg>
